app/assets/images/svg_store/channels-icon.svg

<svg width="40" height="40" viewBox="0 0 40 40" fill="none" xmlns="http://www.w3.org/2000/svg">
<circle cx="20" cy="20" r="20" fill="currentColor"/>
<g clip-path="url(#clip0)">
<path d="M26.7526 26.2658L22.2552 28.7796L20.2722 29.8857C20.1555 29.9485 20 29.8731 20 29.7348V20.1823C20 20.044 19.9222 19.9184 19.8056 19.8555L18.03 18.8626C17.9133 18.7997 17.7578 18.8751 17.7578 19.0134V28.4779C17.7578 28.6162 17.6022 28.7042 17.4856 28.6288L15.71 27.6358C15.5933 27.573 15.5156 27.4473 15.5156 27.309V17.6685C15.5156 17.5302 15.4378 17.4045 15.3211 17.3417L13.5455 16.3487C13.4289 16.2859 13.2733 16.3613 13.2733 16.4996V25.9641C13.2733 26.1024 13.1178 26.1904 13.0012 26.1149L11.2255 25.122C11.1089 25.0591 11.0311 24.9334 11.0311 24.7952V15.1547C11.0311 15.0164 10.9533 14.8907 10.8367 14.8279L9.02218 13.8223C8.90553 13.7595 8.75 13.8349 8.75 13.9732V26.0395C8.75 26.1778 8.82776 26.3035 8.94441 26.3663L19.8056 32.4498C19.9222 32.5126 20.0778 32.5126 20.1944 32.4498L31.0556 26.3663C31.1722 26.3035 31.25 26.1778 31.25 26.0395V24.041C31.25 23.9028 31.0945 23.8148 30.9778 23.8902L26.7526 26.2658Z" fill="white"/>
<path d="M17.7448 11.1451L19.8056 12.3015C19.9222 12.3643 20.0777 12.3643 20.1944 12.3015L22.2551 11.1451L24.2382 10.039C24.3548 9.97617 24.3548 9.80021 24.2382 9.73736L22.4625 8.7444C22.3459 8.68155 22.1903 8.68155 22.0737 8.7444L20.2073 9.78764C20.0907 9.85048 19.9352 9.85048 19.8185 9.78764L17.9392 8.7444C17.8226 8.68155 17.667 8.68155 17.5504 8.7444L15.7747 9.73736C15.6581 9.80021 15.6581 9.97617 15.7747 10.039L17.7448 11.1451Z" fill="white"/>
<path d="M11.2775 12.2512L13.0531 11.2582C13.1698 11.1953 13.3253 11.1953 13.4419 11.2582L17.7449 13.6715L19.8057 14.8278C19.9223 14.8907 20.0779 14.8907 20.1945 14.8278L26.5583 11.2708C26.6749 11.2079 26.8305 11.2079 26.9471 11.2708L28.7228 12.2637C28.8394 12.3266 28.8394 12.5025 28.7228 12.5654L22.2423 16.1853L20.1816 17.3417C20.0649 17.4045 19.9094 17.4045 19.7927 17.3417L17.732 16.1853L11.2516 12.5654C11.1479 12.49 11.1479 12.3266 11.2775 12.2512Z" fill="white"/>
<path d="M22.2422 20.9239V18.9254C22.2422 18.7871 22.32 18.6614 22.4366 18.5986L30.9648 13.8223C31.0815 13.7595 31.237 13.8349 31.237 13.9732V15.9716C31.237 16.1099 31.1592 16.2356 31.0426 16.2984L22.5144 21.0747C22.3977 21.1376 22.2422 21.0621 22.2422 20.9239Z" fill="white"/>
<path d="M22.2422 25.9641V23.9656C22.2422 23.8273 22.32 23.7016 22.4366 23.6388L30.9648 18.8625C31.0815 18.7996 31.237 18.8751 31.237 19.0133V21.0118C31.237 21.1501 31.1592 21.2758 31.0426 21.3386L22.5144 26.1149C22.3977 26.1777 22.2422 26.0897 22.2422 25.9641Z" fill="white"/>
</g>
<defs>
<clipPath id="clip0">
<rect x="8.75" y="7.5" width="22.5" height="25" fill="white"/>
</clipPath>
</defs>
</svg>

<svg xmlns="http://www.w3.org/2000/svg" fill="none" viewBox="0 0 40 40"><circle cx="20" cy="20" r="20" fill="currentColor"/><g fill="#fff" clip-path="url(#clip0)"><path d="M26.753 26.266l-4.498 2.514-1.983 1.106c-.116.063-.272-.013-.272-.151v-9.553a.373.373 0 00-.194-.326l-1.776-.993c-.117-.063-.272.012-.272.15v9.465c0 .138-.156.226-.272.15l-1.776-.992a.373.373 0 01-.194-.327v-9.64a.373.373 0 00-.195-.327l-1.775-.993c-.117-.063-.273.012-.273.15v9.465c0 .138-.155.226-.272.15l-1.775-.992a.373.373 0 01-.195-.327v-9.64a.373.373 0 00-.194-.327l-1.815-1.006c-.116-.063-.272.013-.272.151V26.04c0 .139.078.264.194.327l10.862 6.084a.425.425 0 00.388 0l10.862-6.084a.373.373 0 00.194-.326V24.04c0-.138-.155-.226-.272-.15l-4.225 2.375zM17.745 11.145l2.06 1.157a.425.425 0 00.39 0l2.06-1.157 1.983-1.106a.174.174 0 000-.302l-1.776-.993a.424.424 0 00-.388 0l-1.867 1.044a.424.424 0 01-.389 0L17.94 8.744a.424.424 0 00-.389 0l-1.775.993a.174.174 0 000 .302l1.97 1.106z"/><path d="M11.277 12.251l1.776-.993a.424.424 0 01.389 0l4.303 2.414 2.06 1.156a.424.424 0 00.39 0l6.363-3.557a.424.424 0 01.39 0l1.775.993a.174.174 0 010 .301l-6.48 3.62-2.061 1.157a.425.425 0 01-.39 0l-2.06-1.157-6.48-3.62c-.104-.075-.104-.238.025-.314zM22.242 20.924v-1.999c0-.138.078-.264.195-.326l8.528-4.777c.116-.063.272.013.272.151v1.999a.373.373 0 01-.194.326l-8.529 4.777c-.116.063-.272-.013-.272-.151zM22.242 25.964v-1.998c0-.139.078-.264.195-.327l8.528-4.776c.116-.063.272.012.272.15v1.999a.373.373 0 01-.194.327l-8.529 4.776c-.116.063-.272-.025-.272-.15z"/></g><defs><clipPath id="clip0"><path fill="#fff" d="M8.75 7.5h22.5v25H8.75z"/></clipPath></defs></svg>
